X: 1
T: Favourite Dram, The
M: 9/8
L: 1/8
R: slip jig
K: Gmaj
|:B2 c dBG G2 f|g2 e dBG G2 c|B2 c dBG GAB| c2 B AFD D2 c:|
|:(B>AB) (B>AB) G2 c|B2 c dBG G2 c|1 (B>AB) (B>AB) G2 B|
c2 B AFD D2 c:|2 B2 c dBG gdB|c2 B AFD D2 d||
|:gdB gdB G2 f|1 g2 e dBG G2 f|gdB gdB G2 B|c2 B AFD D2 d:|
[2 g2 e dBG G2 c|Bcd def gdB|c2 B AFD D2||
